images/icon-mail.svg

<?xml version="1.0" encoding="UTF-8" standalone="no"?>
<svg width="13px" height="11px" viewBox="0 0 13 11" version="1.1" xmlns="http://www.w3.org/2000/svg" xmlns:xlink="http://www.w3.org/1999/xlink">
    <!-- Generator: Sketch 3.8.3 (29802) - http://www.bohemiancoding.com/sketch -->
    <title>icon-mail</title>
    <desc>Created with Sketch.</desc>
    <defs></defs>
    <g id="Symbols" stroke="none" stroke-width="1" fill="none" fill-rule="evenodd">
        <g id="icon-mail" fill="#FFFFFF">
            <path d="M12.6590616,0.398133621 C12.4317397,0.173331281 12.1584726,0.0609741379 11.8393493,0.0609741379 L1.16073973,0.0609741379 C0.841527397,0.0609741379 0.568260274,0.173331281 0.340938356,0.398133621 C0.113616438,0.622935961 0,0.893174261 0,1.20884852 L0,9.01432389 C0,9.32999815 0.113616438,9.60006034 0.340938356,9.82486268 C0.568260274,10.0498411 0.841527397,10.1621102 1.16073973,10.1621102 L11.8393493,10.1621102 C12.1584726,10.1621102 12.4317397,10.0498411 12.6590616,9.82486268 C12.8864726,9.60006034 13,9.3299101 13,9.01432389 L13,1.20884852 C13,0.893174261 12.8864726,0.622935961 12.6590616,0.398133621 L12.6590616,0.398133621 Z M12.0713014,9.01414778 C12.0713014,9.07631404 12.0483288,9.13011515 12.0023836,9.17555111 C11.9564384,9.22098707 11.9020342,9.243617 11.8392603,9.243617 L1.16065068,9.243617 C1.09778767,9.243617 1.04338356,9.22098707 0.997438356,9.17555111 C0.951493151,9.13011515 0.928520548,9.07631404 0.928520548,9.01414778 L0.928520548,3.50450924 C1.08327397,3.67665517 1.25013699,3.83453633 1.42910959,3.9779766 C2.72528082,4.9632149 3.75539726,5.77146429 4.51954795,6.40281281 C4.76619178,6.60850739 4.96689041,6.76867796 5.12164384,6.88350062 C5.27639726,6.99832328 5.48555479,7.11420259 5.74911644,7.23140271 C6.01267808,7.34860283 6.26056849,7.40707081 6.49269863,7.40707081 L6.5,7.40707081 L6.50721233,7.40707081 C6.73925342,7.40707081 6.98732192,7.34860283 7.25079452,7.23140271 C7.51444521,7.11420259 7.72369178,6.99832328 7.87844521,6.88350062 C8.03310959,6.76867796 8.23389726,6.60850739 8.4805411,6.40281281 C9.24469178,5.77146429 10.2747192,4.9632149 11.5708904,3.9779766 C11.749863,3.83453633 11.9168151,3.67665517 12.0713904,3.50450924 L12.0713904,9.01414778 L12.0713014,9.01414778 Z M12.0713014,1.39534729 L12.0713014,1.47424384 C12.0713014,1.75636946 11.9589315,2.07089901 11.7341027,2.41756835 C11.509274,2.76432574 11.2661027,3.04055172 11.0050342,3.24615825 C10.0715274,3.97322167 9.1019589,4.73119212 8.09588356,5.52033374 C8.06685616,5.54419643 7.98217808,5.61481589 7.84193836,5.73192796 C7.70178767,5.84912808 7.5904863,5.93894335 7.50821233,6.00102155 C7.42593836,6.06327586 7.31846575,6.13856219 7.18543836,6.2269686 C7.05241096,6.315375 6.93033562,6.38123953 6.81912329,6.42420998 C6.70791096,6.46718042 6.60391096,6.48866564 6.50721233,6.48866564 L6.5,6.48866564 L6.49269863,6.48866564 C6.396,6.48866564 6.29208904,6.46718042 6.18078767,6.42420998 C6.06957534,6.38123953 5.94741096,6.315375 5.8144726,6.2269686 C5.68153425,6.13856219 5.57388356,6.06327586 5.49169863,6.00102155 C5.4095137,5.93894335 5.29821233,5.84912808 5.1579726,5.73192796 C5.01773288,5.61481589 4.93305479,5.54419643 4.9040274,5.52033374 C3.89813014,4.73119212 2.9284726,3.97322167 1.99505479,3.24615825 C1.28406164,2.69141687 0.928609589,2.01225493 0.928609589,1.20876047 C0.928609589,1.14659421 0.951582192,1.0927931 0.997527397,1.04735714 C1.0434726,1.00192118 1.09787671,0.979203202 1.16073973,0.979203202 L11.8393493,0.979203202 C11.8779932,1.00068842 11.9118288,1.00667611 11.9409452,0.997166256 C11.9699726,0.987480296 11.9916986,1.00544335 12.0061233,1.05087931 C12.020637,1.09631527 12.0339041,1.11780049 12.0460137,1.11542303 C12.0581233,1.11304557 12.0654247,1.14289594 12.0678288,1.20515025 C12.0700548,1.2673165 12.0713014,1.29857574 12.0713014,1.29857574 L12.0713014,1.39534729 L12.0713014,1.39534729 Z"></path>
        </g>
    </g>
</svg>

<svg height="11" viewBox="0 0 13 11" width="13" xmlns="http://www.w3.org/2000/svg"><path d="m12.6590616.39813362c-.2273219-.22480234-.500589-.33715948-.8197123-.33715948h-10.67860957c-.31921233 0-.59247946.11235714-.81980137.33715948-.22732192.22480234-.34093836.49504064-.34093836.8107149v7.80547537c0 .31567426.11361644.58573645.34093836.81053879.22732191.22497842.50058904.33724752.81980137.33724752h10.67860957c.3191233 0 .5923904-.1122691.8197123-.33724752.227411-.22480234.3409384-.49495258.3409384-.81053879v-7.80547537c0-.31567426-.1135274-.58591256-.3409384-.8107149zm-.5877602 8.61601416c0 .06216626-.0229726.11596737-.0689178.16140333s-.1003494.06806589-.1631233.06806589h-10.67860962c-.06286301 0-.11726712-.02262993-.16321232-.06806589-.04594521-.04543596-.06891781-.09923707-.06891781-.16140333v-5.50963854c.15475342.17214593.32161644.33002709.50058904.47346736 1.29617123.9852383 2.32628767 1.79348769 3.09043836 2.42483621.24664383.20569458.44734246.36586515.60209589.48068781.15475342.11482266.36391095.23070197.6274726.34790209.26356164.11720012.51145205.1756681.74358219.1756681h.00730137.00721233c.23204109 0 .48010959-.05846798.74358219-.1756681.26365069-.11720012.47289726-.23307943.62765069-.34790209.15466438-.11482266.35545205-.27499323.60209589-.48068781.76415068-.63134852 1.7941781-1.43959791 3.0903493-2.42483621.1789726-.14344027.3459247-.30132143.5005-.47346736v5.50963854zm0-7.61880049v.07889655c0 .28212562-.1123699.59665517-.3371987.94332451-.2248287.34675739-.468.62298337-.7290685.8285899-.9335068.72706342-1.9030753 1.48503387-2.90915064 2.27417549-.0290274.02386269-.11370548.09448215-.2539452.21159422-.14015069.11720012-.25145206.20701539-.33372603.26909359-.08227397.06225431-.18974658.13754064-.32277397.22594705-.1330274.0884064-.25510274.15427093-.36631507.19724138-.11121233.04297044-.21521233.06445566-.31191096.06445566h-.00721233-.00730137c-.09669863 0-.20060959-.02148522-.31191096-.06445566-.11121233-.04297045-.23337671-.10883498-.36631507-.19724138-.13293835-.08840641-.24058904-.16369274-.32277397-.22594705-.08218493-.0620782-.1934863-.15189347-.33372603-.26909359-.14023972-.11711207-.22491781-.18773153-.2539452-.21159422-1.00589726-.78914162-1.9755548-1.54711207-2.90897261-2.27417549-.71099315-.55474138-1.0664452-1.23390332-1.0664452-2.03739778 0-.06216626.0229726-.11596737.06891781-.16140333.0459452-.04543596.10034931-.06815394.16321233-.06815394h10.67860957c.0386439.02148522.0724795.02747291.1015959.01796306.0290274-.00968596.0507534.00827709.0651781.05371305.0145137.04543596.0277808.06692118.0398904.06454372s.019411.02747291.0218151.08972722c.002226.06216625.0034726.09342549.0034726.09342549z" fill="#fff" fill-rule="evenodd"/></svg>
